X: 8189
T: Cooley's
R: reel
M: 4/4
K: Edorian
|:"E"EB"e"BA B2 "e"EB|B2 "e"AB dB"e"AG|"D"FD"d"AD BD"d"AD|FA"d"AA BA"B"GF|
"E"EB"e"BA B2 "e"EB|B2 "e"AB de"e"fg|"D"af"d"ge dB"d"AF|1 DE"B"FD "E"(E2"e"E)D:|2 DE"B"FD "E"E2 "e"gf||
|:"E"eB "e"B2 eB"e"gf|eB "e"B2 ge"e"dB|"D"A2 "d"FA DA"d"FA|A2 "d"FA de"B"fg|
"E"eB "e"B2 eB"e"gf|eB "e"B2 de"e"fg|"D"af"d"ge dB"d"AF|1 DE"B"FD "E"E2"e"gf:|2 DE"B"FD "E"(E2"e"E)D||

